X: 31483
T: Paddy Whack
R: jig
M: 6/8
K: Gmajor
Ace aga|fed cdB|Ace fga|gee efg|
aba aec|dfa ecA|ABc dBe|cAG A3:|
|:ece fdf|ecA B2c|Ace fga|gee efg|
aba aec|dfa ecA|ABc dBe|cAA A3:|

